svgs/snapseed.svg

<svg width="192" height="192" viewBox="0 0 192 192" fill="none" xmlns="http://www.w3.org/2000/svg">
<path fill-rule="evenodd" clip-rule="evenodd" d="M67.2156 16.6852C68.9595 15.7716 71.0405 15.7716 72.7844 16.6852C97.5686 29.6696 115.299 55.0746 119.195 84H154C163.941 84 172 92.0589 172 102V158C172 167.941 163.941 176 154 176L70 176C69.0301 176 68.0747 175.765 67.2156 175.315C39.0659 160.567 20 129.786 20 96.0001C20 62.2147 39.0659 31.4327 67.2156 16.6852ZM107.129 84.3858C105.953 76.5855 103.619 69.1033 100.314 62.1717L76 86.4853V115.515L107.129 84.3858ZM64 115.515V86.4853L39.6866 62.1718C36.3808 69.1043 34.0465 76.5867 32.8711 84.3858L32.9728 84.4875L33.0827 84.5975L33.1928 84.7076L33.3031 84.8178L33.4135 84.9282L33.5241 85.0388L33.6348 85.1495L33.7457 85.2604L33.8568 85.3715L33.968 85.4827L34.0793 85.594L34.1908 85.7056L34.3025 85.8172L34.4143 85.929L34.5262 86.041L34.6383 86.153L34.7506 86.2653L34.8629 86.3777L34.9754 86.4902L35.0881 86.6028L35.2009 86.7156L35.3138 86.8285L35.4269 86.9416L35.54 87.0548L35.6533 87.1681L35.7668 87.2815L35.8804 87.3951L35.994 87.5088L36.1078 87.6226L36.2218 87.7365L36.3358 87.8505L36.45 87.9647L36.5643 88.079L36.6787 88.1934L36.7932 88.3079L36.9078 88.4225L37.0225 88.5372L37.1374 88.6521L37.2523 88.767L37.3673 88.8821L37.4825 88.9972L37.5977 89.1125L37.7131 89.2278L37.8285 89.3432L37.9441 89.4588L38.0597 89.5744L38.1754 89.6901L38.2912 89.806L38.4071 89.9219L38.5231 90.0378L38.6392 90.1539L38.7554 90.2701L38.8716 90.3863L38.9879 90.5026L39.1043 90.619L39.2208 90.7355L39.3374 90.8521L39.454 90.9687L39.5707 91.0854L39.6875 91.2022L39.8043 91.319L39.9212 91.4359L40.0382 91.5529L40.1552 91.6699L40.2723 91.787L40.3895 91.9042L40.5067 92.0214L40.624 92.1387L40.7413 92.256L40.8587 92.3734L40.9761 92.4908L41.0936 92.6083L41.2112 92.7259L41.3287 92.8435L41.4464 92.9611L41.564 93.0788L41.6818 93.1965L41.7995 93.3142L41.9173 93.432L42.0351 93.5499L42.153 93.6677L42.2709 93.7856L42.3888 93.9036L42.5068 94.0215L42.6248 94.1395L42.7428 94.2575L42.8609 94.3756L42.9789 94.4936L43.097 94.6117L43.2151 94.7299L43.3333 94.848L43.4514 94.9661L43.5696 95.0843L43.6877 95.2025L43.8059 95.3207L43.9241 95.4389L44.0423 95.5571L44.1606 95.6753L44.2788 95.7935L44.397 95.9117L44.5152 96.03L44.6335 96.1482L44.7517 96.2664L44.8699 96.3846L44.9881 96.5029L45.1064 96.6211L45.2246 96.7393L45.3428 96.8575L45.4609 96.9757L45.5791 97.0938L45.6973 97.212L45.8154 97.3301L45.9335 97.4483L46.0516 97.5664L46.1697 97.6844L46.2878 97.8025L46.4058 97.9205L46.5238 98.0386L46.6418 98.1565L46.7598 98.2745L46.8777 98.3924L46.9956 98.5103L47.1134 98.6282L47.2313 98.746L47.349 98.8638L47.4668 98.9815L47.5845 99.0992L47.7021 99.2169L47.8197 99.3345L47.9373 99.452L48.0548 99.5696L48.1723 99.687L48.2897 99.8044L48.4071 99.9218L48.5244 100.039L48.6417 100.156L48.7589 100.274L48.876 100.391L48.9931 100.508L49.1101 100.625L49.227 100.742L49.3439 100.859L49.4607 100.975L49.5775 101.092L49.6941 101.209L49.8108 101.325L49.9273 101.442L50.0437 101.558L50.1601 101.675L50.2764 101.791L50.3926 101.907L50.5087 102.023L50.6248 102.14L50.7407 102.255L50.8566 102.371L50.9724 102.487L51.0881 102.603L51.2037 102.718L51.3192 102.834L51.4346 102.949L51.5499 103.065L51.6651 103.18L51.7802 103.295L51.8952 103.41L52.0101 103.525L52.1249 103.64L52.2396 103.754L52.3542 103.869L52.4687 103.983L52.583 104.098L52.6973 104.212L52.8114 104.326L52.9254 104.44L53.0393 104.554L53.1531 104.668L53.2667 104.781L53.3802 104.895L53.4936 105.008L53.6069 105.122L53.72 105.235L53.833 105.348L53.9459 105.461L54.0586 105.573L54.1712 105.686L54.2837 105.798L54.396 105.911L54.5082 106.023L54.6202 106.135L54.7321 106.247L54.8439 106.359L54.9555 106.47L55.0669 106.582L55.1782 106.693L55.2894 106.804L55.4004 106.915L55.5112 107.026L55.6219 107.137L55.7324 107.247L55.8428 107.357L55.953 107.468L56.063 107.578L56.1729 107.688L56.2826 107.797L56.3921 107.907L56.5015 108.016L56.6106 108.125L56.7197 108.234L56.8285 108.343L56.9371 108.452L57.0456 108.56L57.1539 108.669L57.262 108.777L57.37 108.885L57.4777 108.992L57.5853 109.1L57.6926 109.207L57.7998 109.315L57.9068 109.421L58.0136 109.528L58.1202 109.635L58.2265 109.741L58.3327 109.847L58.4387 109.953L58.5445 110.059L58.6501 110.165L58.7555 110.27L58.8607 110.375L58.9656 110.48L59.0704 110.585L59.1749 110.69L59.2792 110.794L59.3833 110.898L59.4872 111.002L59.5909 111.106L59.6943 111.209L59.7976 111.312L59.9006 111.415L60.0034 111.518L60.1059 111.621L60.2082 111.723L60.3103 111.825L60.4122 111.927L60.5138 112.029L60.6152 112.13L60.7163 112.231L60.8172 112.332L60.9179 112.433L61.0183 112.533L61.1185 112.633L61.2184 112.733L61.3181 112.833L61.4175 112.932L61.5167 113.031L61.6157 113.13L61.7143 113.229L61.8128 113.327L61.9109 113.426L62.0088 113.524L62.1065 113.621L62.2038 113.719L62.301 113.816L62.3978 113.913L62.4944 114.009L62.5907 114.105L62.6867 114.201L62.7825 114.297L62.878 114.393L62.9732 114.488L63.0682 114.583L63.1628 114.678L63.2572 114.772L63.3513 114.866L63.4451 114.96L63.5386 115.053L63.6319 115.147L63.7248 115.24L63.8175 115.332L63.9098 115.425L64 115.515ZM32.1375 100.623C33.5564 124.464 45.8527 146.087 64 159.235V132.485L63.9796 132.465L63.9354 132.421L63.8908 132.376L63.8457 132.331L63.8 132.285L63.7539 132.239L63.7073 132.193L63.6602 132.146L63.6126 132.098L63.5646 132.05L63.516 132.001L63.467 131.952L63.4175 131.903L63.3675 131.853L63.317 131.802L63.2661 131.751L63.2147 131.7L63.1628 131.648L63.1105 131.596L63.0577 131.543L63.0044 131.49L62.9506 131.436L62.8964 131.382L62.8417 131.327L62.7866 131.272L62.731 131.216L62.675 131.16L62.6185 131.104L62.5615 131.047L62.5041 130.989L62.4463 130.932L62.388 130.873L62.3292 130.814L62.27 130.755L62.2104 130.696L62.1503 130.636L62.0898 130.575L62.0289 130.514L61.9675 130.453L61.9056 130.391L61.8434 130.329L61.7807 130.266L61.7176 130.203L61.654 130.139L61.5901 130.075L61.5257 130.011L61.4609 129.946L61.3956 129.881L61.33 129.815L61.2639 129.749L61.1974 129.683L61.1305 129.616L61.0632 129.548L60.9954 129.481L60.9273 129.413L60.8588 129.344L60.7898 129.275L60.7204 129.206L60.6507 129.136L60.5805 129.066L60.51 128.995L60.439 128.924L60.3677 128.853L60.2959 128.781L60.2238 128.709L60.1512 128.637L60.0783 128.564L60.005 128.49L59.9313 128.417L59.8572 128.342L59.7828 128.268L59.7079 128.193L59.6327 128.118L59.5571 128.042L59.4811 127.966L59.4048 127.89L59.328 127.813L59.2509 127.736L59.1735 127.659L59.0956 127.581L59.0174 127.503L58.9389 127.424L58.86 127.345L58.7807 127.266L58.701 127.186L58.621 127.106L58.5406 127.026L58.4599 126.945L58.3789 126.864L58.2974 126.783L58.2157 126.701L58.1336 126.619L58.0511 126.536L57.9683 126.454L57.8851 126.37L57.8017 126.287L57.7178 126.203L57.6337 126.119L57.5492 126.034L57.4643 125.95L57.3791 125.864L57.2936 125.779L57.2078 125.693L57.1217 125.607L57.0352 125.52L56.9484 125.434L56.8612 125.347L56.7738 125.259L56.686 125.171L56.5979 125.083L56.5095 124.995L56.4208 124.906L56.3317 124.817L56.2424 124.728L56.1527 124.638L56.0628 124.548L55.9725 124.458L55.8819 124.367L55.7911 124.276L55.6999 124.185L55.6084 124.094L55.5166 124.002L55.4246 123.91L55.3322 123.817L55.2395 123.725L55.1466 123.632L55.0534 123.539L54.9598 123.445L54.866 123.351L54.7719 123.257L54.6775 123.163L54.5829 123.068L54.4879 122.973L54.3927 122.878L54.2972 122.783L54.2015 122.687L54.1054 122.591L54.0091 122.494L53.9125 122.398L53.8157 122.301L53.7186 122.204L53.6212 122.106L53.5235 122.009L53.4256 121.911L53.3275 121.813L53.229 121.714L53.1304 121.616L53.0314 121.517L52.9323 121.418L52.8328 121.318L52.7331 121.218L52.6332 121.118L52.533 121.018L52.4326 120.918L52.3319 120.817L52.231 120.716L52.1299 120.615L52.0285 120.514L51.9269 120.412L51.825 120.31L51.7229 120.208L51.6206 120.106L51.5181 120.003L51.4153 119.901L51.3123 119.798L51.2091 119.694L51.1056 119.591L51.0019 119.487L50.8981 119.383L50.7939 119.279L50.6896 119.175L50.5851 119.07L50.4803 118.966L50.3754 118.861L50.2702 118.755L50.1648 118.65L50.0592 118.545L49.9534 118.439L49.8475 118.333L49.7413 118.227L49.6349 118.12L49.5283 118.014L49.4215 117.907L49.3145 117.8L49.2073 117.693L49.1 117.585L48.9924 117.478L48.8847 117.37L48.7767 117.262L48.6686 117.154L48.5603 117.046L48.4519 116.937L48.3432 116.828L48.2344 116.72L48.1254 116.611L48.0162 116.501L47.9068 116.392L47.7973 116.283L47.6876 116.173L47.5777 116.063L47.4677 115.953L47.3575 115.843L47.2471 115.732L47.1366 115.622L47.0259 115.511L46.9151 115.4L46.8041 115.289L46.693 115.178L46.5817 115.067L46.4702 114.955L46.3586 114.844L46.2469 114.732L46.135 114.62L46.0229 114.508L45.9107 114.396L45.7984 114.284L45.6859 114.171L45.5733 114.059L45.4606 113.946L45.3477 113.833L45.2347 113.72L45.1216 113.607L45.0083 113.494L44.8949 113.38L44.7814 113.267L44.6678 113.153L44.554 113.039L44.4401 112.925L44.3261 112.811L44.212 112.697L44.0977 112.583L43.9834 112.469L43.8689 112.354L43.7543 112.24L43.6397 112.125L43.5249 112.01L43.41 111.895L43.295 111.78L43.1798 111.665L43.0646 111.55L42.9493 111.435L42.8339 111.319L42.7184 111.204L42.6028 111.088L42.4871 110.972L42.3713 110.857L42.2555 110.741L42.1395 110.625L42.0235 110.509L41.9073 110.393L41.7911 110.276L41.6748 110.16L41.5584 110.044L41.442 109.927L41.3255 109.811L41.2089 109.694L41.0922 109.577L40.9754 109.461L40.8586 109.344L40.7417 109.227L40.6248 109.11L40.5078 108.993L40.3907 108.876L40.2736 108.759L40.1564 108.642L40.0391 108.524L39.9218 108.407L39.8044 108.29L39.687 108.172L39.5696 108.055L39.452 107.937L39.3345 107.82L39.2169 107.702L39.0992 107.584L38.9815 107.467L38.8638 107.349L38.746 107.231L38.6282 107.113L38.5103 106.996L38.3924 106.878L38.2745 106.76L38.1565 106.642L38.0386 106.524L37.9205 106.406L37.8025 106.288L37.6844 106.17L37.5664 106.052L37.4483 105.934L37.3301 105.815L37.212 105.697L37.0938 105.579L36.9757 105.461L36.8575 105.343L36.7393 105.225L36.6211 105.106L36.5029 104.988L36.3846 104.87L36.2664 104.752L36.1482 104.633L36.03 104.515L35.9117 104.397L35.7935 104.279L35.6753 104.161L35.5571 104.042L35.4389 103.924L35.3207 103.806L35.2025 103.688L35.0843 103.57L34.9661 103.451L34.848 103.333L34.7298 103.215L34.6117 103.097L34.4936 102.979L34.3756 102.861L34.2575 102.743L34.1395 102.625L34.0215 102.507L33.9036 102.389L33.7856 102.271L33.6677 102.153L33.5499 102.035L33.432 101.917L33.3142 101.8L33.1965 101.682L33.0788 101.564L32.9611 101.446L32.8435 101.329L32.7259 101.211L32.6083 101.094L32.4908 100.976L32.3734 100.859L32.256 100.741L32.1387 100.624L32.1375 100.623ZM89.251 164L154 164C157.314 164 160 161.314 160 158V102C160 98.6863 157.314 96 154 96H120C120 96 120 96.0001 120 96.0001C120 122.678 108.112 147.483 89.251 164ZM76 159.235V132.485L107.863 100.623C106.444 124.464 94.1473 146.087 76 159.235ZM45.8956 51.4103L64 69.5147V32.7648C56.9978 37.8381 50.8668 44.1731 45.8956 51.4103ZM76 32.7649V69.5147L94.1044 51.4103C89.1325 44.1722 83.001 37.8375 76 32.7649Z" fill="black"/>
</svg>

<svg xmlns="http://www.w3.org/2000/svg" width="192" height="192" fill="none" xmlns:v="https://vecta.io/nano"><path fill-rule="evenodd" d="M67.216 16.685a6 6 0 0 1 5.569 0C97.569 29.67 115.299 55.075 119.195 84H154c9.941 0 18 8.059 18 18v56c0 9.941-8.059 18-18 18H70a6 6 0 0 1-2.784-.685C39.066 160.567 20 129.786 20 96s19.066-64.567 47.216-79.315zm39.913 67.701a79.01 79.01 0 0 0-6.815-22.214L76 86.485v29.03l31.129-31.129zM64 115.515v-29.03L39.687 62.172c-3.306 6.932-5.64 14.415-6.815 22.214l.102.102.11.11.11.11.11.11.11.11.111.111.111.111.111.111.111.111.111.111.111.111.111.112.112.112.112.112.112.112.112.112.112.112.112.112.112.112.113.113.113.113.113.113.113.113.113.113.113.113.114.113.114.114.114.114.114.114.114.114.114.114.114.114.114.114.114.114.114.115.115.115.115.115.115.115.115.115.115.115.115.115.115.115.115.115.115.115.116.116.116.116.116.116.116.116.116.116.116.116.116.116.116.116.116.116.116.116.116.116.116.117.117.117.117.117.117.117.117.117.117.117.117.117.117.117.117.117.117.117.117.117.117.117.117.117.117.117.117.117.117.117.117.118.118.118.117.118.118.118.118.118.118.118.118.118.118.118.118.118.118.118.118.118.118.118.118.118.118.118.118.118.118.118.118.118.118.118.118.118.118.118.118.118.118.118.118.118.118.118.118.118.118.118.118.118.118.118.118.118.118.118.118.118.118.118.118.118.118.118.118.118.118.118.118.118.118.118.118.118.118.118.118.118.118.118.118.118.118.118.118.118.118.118.118.118.118.118.118.118.118.118.118.118.118.118.118.118.118.118.118.118.118.118.118.118.118.118.118.117.117.118.117.117.117.117.117.117.117.117.117.117.117.118.117.117.117.117.117.117.117.117.117.117.117.116.117.117.117.117.117.116.117.117.116.116.116.117.116.116.116.116.116.116.116.117.116.115.116.116.116.116.116.116.116.115.116.116.115.115.115.116.115.115.115.115.115.115.115.115.115.115.115.114.115.115.114.114.114.115.114.114.114.114.114.114.114.114.114.114.114.113.114.114.113.113.113.114.113.113.113.113.113.113.113.112.113.113.113.112.112.113.112.112.112.112.112.112.112.112.112.111.111.112.111.111.111.111.111.111.111.111.111.111.111.11.11.11.11.111.11.11.11.11.11.109.109.11.109.109.109.109.109.109.109.109.109.109.108.108.108.109.108.108.108.108.108.107.108.108.107.107.107.108.107.106.107.107.107.107.106.106.106.106.106.106.106.106.106.106.105.105.105.105.105.105.105.105.105.105.104.104.104.104.104.104.104.104.103.103.103.103.103.103.103.103.102.103.102.102.102.102.102.102.102.102.101.101.101.101.101.101.101.101.1.1.1.1.1.1.1.1.099.099.099.099.099.099.099.099.099.098.098.099.098.098.098.097.097.098.097.097.097.097.097.096.096.096.096.096.096.096.096.096.095.095.095.095.095.095.094.094.094.094.094.094.094.093.093.094.093.093.093.092.092.093.09.09zm-31.862-14.892c1.419 23.841 13.715 45.464 31.862 58.612v-26.75l-.02-.02-.044-.044-.045-.045-.045-.045-.046-.046-.046-.046-.047-.046-.047-.047-.048-.048-.048-.048-.049-.049-.049-.049-.05-.049-.05-.05-.05-.051-.051-.051-.051-.051-.052-.052-.052-.052-.053-.053-.053-.053-.054-.054-.054-.054-.055-.055-.055-.055-.056-.056-.056-.056-.056-.056-.057-.057-.057-.058-.058-.057-.058-.059-.059-.059-.059-.059-.06-.059-.06-.06-.061-.061-.061-.061-.061-.061-.062-.062-.062-.062-.063-.063-.063-.063-.064-.064-.064-.064-.064-.064-.065-.065-.065-.065-.066-.066-.066-.066-.066-.066-.067-.067-.067-.068-.068-.067-.068-.068-.069-.069-.069-.069-.069-.069-.07-.07-.07-.07-.071-.071-.071-.071-.071-.071-.072-.072-.072-.072-.073-.072-.073-.073-.073-.074-.074-.073-.074-.075-.074-.074-.075-.075-.075-.075-.076-.076-.076-.076-.076-.076-.077-.077-.077-.077-.077-.077-.078-.078-.078-.078-.079-.079-.079-.079-.079-.079-.08-.08-.08-.08-.08-.08-.081-.081-.081-.081-.081-.081-.082-.082-.082-.082-.083-.083-.083-.082-.083-.084-.083-.083-.084-.084-.084-.084-.084-.085-.085-.084-.085-.086-.086-.085-.086-.086-.086-.086-.086-.087-.087-.086-.087-.087-.087-.088-.088-.088-.088-.088-.088-.088-.089-.089-.089-.089-.089-.089-.09-.09-.09-.09-.09-.09-.091-.091-.091-.091-.091-.091-.091-.091-.092-.092-.092-.092-.092-.093-.093-.092-.093-.093-.093-.093-.094-.094-.094-.094-.094-.094-.094-.094-.095-.095-.095-.095-.095-.095-.096-.095-.096-.096-.096-.096-.096-.097-.097-.096-.097-.097-.097-.097-.097-.098-.098-.097-.098-.098-.098-.098-.099-.099-.099-.098-.099-.099-.099-.099-.099-.1-.1-.1-.1-.1-.1-.1-.1-.1-.101-.101-.101-.101-.101-.101-.101-.101-.102-.102-.102-.102-.102-.102-.102-.102-.103-.103-.103-.102-.103-.103-.103-.104-.103-.103-.104-.104-.104-.104-.104-.104-.104-.104-.105-.105-.105-.104-.105-.105-.105-.106-.105-.105-.106-.105-.106-.106-.106-.106-.106-.106-.106-.107-.107-.106-.107-.107-.107-.107-.107-.107-.107-.108-.108-.107-.108-.108-.108-.108-.108-.108-.108-.108-.108-.109-.109-.109-.109-.108-.109-.109-.109-.11-.109-.109-.109-.109-.11-.11-.11-.11-.11-.11-.11-.11-.11-.111-.111-.11-.111-.111-.111-.111-.111-.111-.111-.111-.111-.111-.111-.112-.112-.111-.112-.112-.112-.112-.112-.112-.112-.112-.112-.112-.113-.113-.113-.112-.113-.113-.113-.113-.113-.113-.113-.113-.113-.113-.113-.114-.114-.113-.114-.114-.114-.114-.114-.114-.114-.114-.114-.114-.114-.114-.114-.114-.115-.115-.115-.114-.115-.115-.115-.115-.115-.115-.115-.115-.115-.115-.115-.115-.115-.115-.115-.116-.115-.115-.116-.116-.116-.116-.116-.115-.116-.116-.116-.116-.116-.116-.116-.116-.116-.117-.116-.116-.116-.116-.116-.117-.117-.116-.117-.117-.117-.117-.117-.116-.117-.117-.117-.117-.117-.117-.117-.117-.117-.117-.117-.117-.117-.117-.117-.118-.117-.117-.117-.117-.117-.118-.117-.117-.118-.118-.117-.117-.118-.118-.118-.118-.118-.117-.118-.118-.118-.118-.118-.118-.118-.117-.118-.118-.118-.118-.118-.118-.118-.118-.118-.118-.118-.118-.118-.118-.118-.118-.118-.118-.118-.119-.118-.118-.118-.118-.118-.118-.118-.118-.118-.118-.118-.119-.118-.118-.118-.118-.118-.118-.118-.119-.118-.118-.118-.118-.118-.118-.118-.118-.118-.119-.118-.118-.118-.118-.118-.118-.118-.118-.118-.119-.118-.118-.118-.118-.118-.118-.118-.118-.118-.118-.118-.118-.118-.118-.118-.118-.118-.118-.118-.118-.118-.118-.118-.118-.118-.118-.118-.117-.118-.118-.118-.118-.118-.118-.118-.117-.118-.118-.118-.117-.117-.118-.117-.117-.117-.118-.117-.117-.001-.001zM89.251 164H154a6 6 0 0 0 6-6v-56a6 6 0 0 0-6-6h-34c0 26.678-11.888 51.483-30.749 68zM76 159.235v-26.75l31.863-31.862c-1.419 23.841-13.716 45.464-31.863 58.612zM45.896 51.41L64 69.515v-36.75c-7.002 5.073-13.133 11.408-18.104 18.646zM76 32.765v36.75L94.104 51.41C89.133 44.172 83.001 37.838 76 32.765z" fill="#000"/></svg>
